!!!OTL: Die Mordeltern Es war'n einmal zwei Bauernsoehn,
!!!ARE: Europa, Suedosteuropa, Rumaenien, Siebenbuergen
!!!YOR: 4, S. 310
!!    1931 gedruckt in Herrmannstadt
!!!SCT: Q0085Z
!!!YEM: Copyright 1995, estate of Helmut Schaffrath.
**kern
*ICvox
*Ivox
*M3/4
*k[f#]
*G:
{8g
=1
8b
8a
4g
4g
=2
8f#
8e
4d
8r}
{8g
=3
8f#
8g
4a
4a
=4
8g
8a
4b
8r}
{8d
=5
8g
8b
4dd
4dd
=6
4ee
4dd
8r}
{8cc
=7
8b
8cc
4dd
4dd
=8
4cc
4b
8r}
==
!!!AGN: Ballade, Habgier, Mord, Reue, Selbstmord
!!!ONB: ESAC (Essen Associative Code) Database: BALLADE
!!!AMT: simple triple
!!!AIN: vox
!!!EED: Helmut Schaffrath
!!!EEV: 1.0
*-
